img/icon/icon_3.svg

<svg height="44" width="46" xmlns="http://www.w3.org/2000/svg"><path d="m43.282 27.26h-.092v4.257c0 4.064-2.975 7.452-6.881 8.14v2.558h5.134c.496 0 .898.398.898.89 0 .491-.402.89-.898.89h-36.088c-.497 0-.899-.399-.899-.89 0-.492.402-.89.899-.89h4.34v-2.558c-3.906-.688-6.882-4.076-6.882-8.14v-4.257h-.091c-1.503 0-2.727-1.212-2.727-2.701 0-1.178.765-2.181 1.828-2.55v-3.498c0-1.037.845-1.882 1.889-1.895v-11.3c0-2.933 2.408-5.318 5.368-5.318s5.369 2.385 5.369 5.318v2.091c1.538.452 2.721 1.771 2.929 3.417l.185 1.47c.046.364-.068.731-.314 1.006-.245.276-.599.434-.969.434h-6.002c-.371 0-.724-.158-.97-.434-.245-.275-.36-.642-.313-1.006l.185-1.47c.231-1.835 1.675-3.264 3.471-3.538v-1.97c0-1.951-1.602-3.538-3.571-3.538s-3.571 1.587-3.571 3.538v11.3h.063c1.054 0 1.912.85 1.912 1.895v3.347h35.798c1.503 0 2.726 1.212 2.726 2.701s-1.223 2.701-2.726 2.701zm-32.319-16.216-.114.91h4.86l-.115-.91c-.146-1.154-1.141-2.024-2.315-2.024-1.175 0-2.17.87-2.316 2.024zm21.908 31.171h1.641v-2.431h-2.877zm-2.013 0-1.236-2.431h-13.24l-1.236 2.431zm-19.366 0h1.641l1.236-2.431h-2.877zm-5.805-23.704c0-.063-.052-.114-.115-.114h-1.836c-.064 0-.115.051-.115.114v3.347h2.066zm37.595 5.128h-40.56c-.512 0-.929.413-.929.92 0 .508.417.92.929.92h26.453c.497 0 .899.399.899.891 0 .491-.402.89-.899.89h-24.564v4.257c0 3.577 2.938 6.487 6.549 6.487h23.684c3.611 0 6.549-2.91 6.549-6.487v-4.257h-5.028c-.496 0-.899-.399-.899-.89 0-.492.403-.891.899-.891h6.917c.512 0 .929-.412.929-.92 0-.507-.417-.92-.929-.92zm-10.512 3.621c-.496 0-.9-.399-.9-.89 0-.492.401-.891.898-.891h.002c.496 0 .899.399.899.891 0 .491-.403.89-.899.89zm4.874-6.592c-1.961 0-3.557-1.58-3.557-3.523s1.596-3.523 3.557-3.523 3.556 1.58 3.556 3.523-1.595 3.523-3.556 3.523zm0-5.266c-.97 0-1.76.782-1.76 1.743s.79 1.743 1.76 1.743 1.759-.782 1.759-1.743-.789-1.743-1.759-1.743zm-1.863-3.338c-2.542 0-4.611-2.049-4.611-4.568 0-2.518 2.069-4.567 4.611-4.567s4.611 2.049 4.611 4.567c0 2.519-2.069 4.568-4.611 4.568zm0-7.354c-1.551 0-2.813 1.249-2.813 2.786s1.262 2.787 2.813 2.787 2.813-1.25 2.813-2.787-1.262-2.786-2.813-2.786zm-3.45 11.723c0 1.536-1.263 2.787-2.815 2.787-1.551 0-2.813-1.251-2.813-2.787 0-1.538 1.262-2.787 2.813-2.787 1.552 0 2.815 1.249 2.815 2.787zm-2.815-1.007c-.56 0-1.016.452-1.016 1.007 0 .554.456 1.006 1.016 1.006.561 0 1.017-.452 1.017-1.006 0-.555-.456-1.007-1.017-1.007z" fill="#fff" fill-rule="evenodd"/></svg>

<svg 
 xmlns="http://www.w3.org/2000/svg"
 xmlns:xlink="http://www.w3.org/1999/xlink"
 width="46px" height="44px">
<path fill-rule="evenodd"  fill="rgb(255, 255, 255)"
 d="M43.282,27.260 L43.190,27.260 L43.190,31.517 C43.190,35.581 40.215,38.969 36.309,39.657 L36.309,42.215 L41.443,42.215 C41.939,42.215 42.341,42.613 42.341,43.105 C42.341,43.596 41.939,43.995 41.443,43.995 L5.355,43.995 C4.858,43.995 4.456,43.596 4.456,43.105 C4.456,42.613 4.858,42.215 5.355,42.215 L9.695,42.215 L9.695,39.657 C5.789,38.969 2.813,35.581 2.813,31.517 L2.813,27.260 L2.722,27.260 C1.219,27.260 -0.005,26.048 -0.005,24.559 C-0.005,23.381 0.760,22.378 1.823,22.009 L1.823,18.511 C1.823,17.474 2.668,16.629 3.712,16.616 L3.712,5.316 C3.712,2.383 6.120,-0.002 9.080,-0.002 C12.040,-0.002 14.449,2.383 14.449,5.316 L14.449,7.407 C15.987,7.859 17.170,9.178 17.378,10.824 L17.563,12.294 C17.609,12.658 17.495,13.025 17.249,13.300 C17.004,13.576 16.650,13.734 16.280,13.734 L10.278,13.734 C9.907,13.734 9.554,13.576 9.308,13.300 C9.063,13.025 8.948,12.658 8.995,12.294 L9.180,10.824 C9.411,8.989 10.855,7.560 12.651,7.286 L12.651,5.316 C12.651,3.365 11.049,1.778 9.080,1.778 C7.111,1.778 5.509,3.365 5.509,5.316 L5.509,16.616 L5.572,16.616 C6.626,16.616 7.484,17.466 7.484,18.511 L7.484,21.858 L43.282,21.858 C44.785,21.858 46.008,23.070 46.008,24.559 C46.008,26.048 44.785,27.260 43.282,27.260 ZM10.963,11.044 L10.849,11.954 L15.709,11.954 L15.594,11.044 C15.448,9.890 14.453,9.020 13.279,9.020 C12.104,9.020 11.109,9.890 10.963,11.044 ZM32.871,42.215 L34.512,42.215 L34.512,39.784 L31.635,39.784 L32.871,42.215 ZM30.858,42.215 L29.622,39.784 L16.382,39.784 L15.146,42.215 L30.858,42.215 ZM11.492,42.215 L13.133,42.215 L14.369,39.784 L11.492,39.784 L11.492,42.215 ZM5.687,18.511 C5.687,18.448 5.635,18.397 5.572,18.397 L3.736,18.397 C3.672,18.397 3.621,18.448 3.621,18.511 L3.621,21.858 L5.687,21.858 L5.687,18.511 ZM43.282,23.639 L2.722,23.639 C2.210,23.639 1.793,24.052 1.793,24.559 C1.793,25.067 2.210,25.479 2.722,25.479 L29.175,25.479 C29.672,25.479 30.074,25.878 30.074,26.370 C30.074,26.861 29.672,27.260 29.175,27.260 L4.611,27.260 L4.611,31.517 C4.611,35.094 7.549,38.004 11.160,38.004 L34.844,38.004 C38.455,38.004 41.393,35.094 41.393,31.517 L41.393,27.260 L36.365,27.260 C35.869,27.260 35.466,26.861 35.466,26.370 C35.466,25.878 35.869,25.479 36.365,25.479 L43.282,25.479 C43.794,25.479 44.211,25.067 44.211,24.559 C44.211,24.052 43.794,23.639 43.282,23.639 ZM32.770,27.260 C32.274,27.260 31.870,26.861 31.870,26.370 C31.870,25.878 32.271,25.479 32.768,25.479 L32.770,25.479 C33.266,25.479 33.669,25.878 33.669,26.370 C33.669,26.861 33.266,27.260 32.770,27.260 ZM37.644,20.668 C35.683,20.668 34.087,19.088 34.087,17.145 C34.087,15.202 35.683,13.622 37.644,13.622 C39.605,13.622 41.200,15.202 41.200,17.145 C41.200,19.088 39.605,20.668 37.644,20.668 ZM37.644,15.402 C36.674,15.402 35.884,16.184 35.884,17.145 C35.884,18.106 36.674,18.888 37.644,18.888 C38.614,18.888 39.403,18.106 39.403,17.145 C39.403,16.184 38.614,15.402 37.644,15.402 ZM35.781,12.064 C33.239,12.064 31.170,10.015 31.170,7.496 C31.170,4.978 33.239,2.929 35.781,2.929 C38.323,2.929 40.392,4.978 40.392,7.496 C40.392,10.015 38.323,12.064 35.781,12.064 ZM35.781,4.710 C34.230,4.710 32.968,5.959 32.968,7.496 C32.968,9.033 34.230,10.283 35.781,10.283 C37.332,10.283 38.594,9.033 38.594,7.496 C38.594,5.959 37.332,4.710 35.781,4.710 ZM32.331,16.433 C32.331,17.969 31.068,19.220 29.516,19.220 C27.965,19.220 26.703,17.969 26.703,16.433 C26.703,14.895 27.965,13.646 29.516,13.646 C31.068,13.646 32.331,14.895 32.331,16.433 ZM29.516,15.426 C28.956,15.426 28.500,15.878 28.500,16.433 C28.500,16.987 28.956,17.439 29.516,17.439 C30.077,17.439 30.533,16.987 30.533,16.433 C30.533,15.878 30.077,15.426 29.516,15.426 Z"/>
</svg>
